needle.svg

<svg fill="currentColor" viewBox="0 0 24 24"><path d="m11.15 15.18-1.42-1.41 1.42-1.42 1.41 1.42 1.41-1.42-1.41-1.41 1.41-1.41 1.42 1.41 1.41-1.41-2.83-2.83-7.07 7.07 2.83 2.83zM3.08 19l3.12-3.11-2.12-2.12 9.89-9.9L16.1 6l1.4-1.42-1.4-1.42 1.4-1.41L21.75 6l-1.41 1.4L18.92 6 17.5 7.4l2.13 2.13-9.9 9.89-2.12-2.12-4.53 4.54z"/></svg>

<svg  viewBox="0 0 24 24" fill="currentColor"><path  d="M11.15,15.18L9.73,13.77L11.15,12.35L12.56,13.77L13.97,12.35L12.56,10.94L13.97,9.53L15.39,10.94L16.8,9.53L13.97,6.7L6.9,13.77L9.73,16.6L11.15,15.18M3.08,19L6.2,15.89L4.08,13.77L13.97,3.87L16.1,6L17.5,4.58L16.1,3.16L17.5,1.75L21.75,6L20.34,7.4L18.92,6L17.5,7.4L19.63,9.53L9.73,19.42L7.61,17.3L3.08,21.84V19Z"/></svg>
